X: 21372
T: HURRICANE SETT (tune 5)
C:
%R: march, reel
B: Elias Howe "The Musician's Companion" 1843 p.137 #2
S: http://imslp.org/wiki/The_Musician's_Companion_(Howe,_Elias)
Z: 2015 John Chambers <jc:trillian.mit.edu>
N: Wrong rhythms at strain boundaries not fixed.
M: 2/4
L: 1/16
K: D
% - - - - - - - - - - - - - - - - - - - - - - - - - - - - -
V: 1 name="5"
AG |\
F2A2 d2f2 | e2dc d2AG | F2A2 d2f2 | edcB ABcd |\
e2e2 f2f2 | g2e2 dcBA | d2d2 cdec | d6 H|]
A2 |\
d4 e4 | f3g a2f2 | g2e2 f2d2 | edcB ABcA |\
d4 e4 | f3g a2f2 | edcB A2^G2 | "^D.C."A6 |]
dcd2 dcd2 | edcd e2fg | afge d2df | edcB A4 |\
dcd2 dcd2 | edcd e2fg | afge d2c2 | "^D.C."d6 |]
f6 gf | e6 fe | d2d2 c2d2 | edcB A4 |\
f6 gf | e6 fg | afge d2c2 | "^D.C."d6 |]
% - - - - - - - - - - Dance description - - - - - - - - - -
%%begintext align
%% Ladies forward and back,
%% gentlemen the same,
%% all balance partners,
%% alamand corners,
%% partners the same,
%% balance corners,
%% turn partners,
%% grand right and left,
%% all promenade.
%%endtext
% - - - - - - - - - - - - - - - - - - - - - - - - - - - - -
%%sep 1 1 300

%%sep 1 1 500

